resources/icons/hicolor/scalable/actions/cm-wireless-signal-excellent-symbolic.svg

<?xml version="1.0" encoding="UTF-8"?>
<svg height="16px" viewBox="0 0 16 16" width="16px" xmlns="http://www.w3.org/2000/svg">
    <path d="m 8 1.992188 c -2.617188 0 -5.238281 0.933593 -7.195312 2.808593 l -0.496094 0.480469 c -0.3984378 0.378906 -0.410156 1.011719 -0.03125 1.410156 c 0.382812 0.398438 1.015625 0.410156 1.414062 0.03125 l 0.5 -0.476562 c 3.085938 -2.957032 8.53125 -2.957032 11.617188 0 l 0.5 0.476562 c 0.398437 0.378906 1.03125 0.367188 1.414062 -0.03125 c 0.378906 -0.398437 0.367188 -1.03125 -0.03125 -1.410156 l -0.496094 -0.484375 c -1.957031 -1.871094 -4.578124 -2.804687 -7.195312 -2.804687 z m -0.03125 4.007812 c -1.570312 0.011719 -3.128906 0.628906 -4.207031 1.8125 l -0.5 0.550781 c -0.179688 0.195313 -0.277344 0.453125 -0.261719 0.71875 c 0.011719 0.265625 0.128906 0.515625 0.328125 0.695313 c 0.195313 0.179687 0.453125 0.273437 0.71875 0.257812 c 0.265625 -0.011718 0.515625 -0.128906 0.695313 -0.328125 l 0.496093 -0.546875 c 1.277344 -1.402344 4.160157 -1.496094 5.523438 0.003906 l 0.5 0.542969 c 0.175781 0.199219 0.425781 0.316407 0.691406 0.328125 c 0.265625 0.015625 0.523437 -0.078125 0.722656 -0.257812 c 0.195313 -0.179688 0.3125 -0.429688 0.324219 -0.695313 c 0.011719 -0.261719 -0.082031 -0.523437 -0.261719 -0.71875 l -0.5 -0.546875 c -1.121093 -1.234375 -2.703125 -1.828125 -4.269531 -1.816406 z m 0.03125 4 c -0.511719 0 -1.023438 0.195312 -1.414062 0.585938 c -0.78125 0.78125 -0.78125 2.046874 0 2.828124 s 2.046874 0.78125 2.828124 0 s 0.78125 -2.046874 0 -2.828124 c -0.390624 -0.390626 -0.902343 -0.585938 -1.414062 -0.585938 z m 0 0" fill="#2e3436"/>
</svg>

<svg width='16' height='16'
     xmlns:gpa='https://www.gtk.org/grappa'
     gpa:version='1'>
  <path d='M8.00 1.99C5.38 1.99 2.76 2.93 0.80 4.80L0.31 5.28C-0.09 5.66 -0.10 6.29 0.28 6.69C0.66 7.09 1.29 7.10 1.69 6.72L2.19 6.25C5.28 3.29 10.72 3.29 13.81 6.25L14.31 6.72C14.71 7.10 15.34 7.09 15.72 6.69C16.10 6.29 16.09 5.66 15.69 5.28L15.20 4.80C13.24 2.93 10.62 1.99 8.00 1.99ZM7.97 6.00C6.40 6.01 4.84 6.63 3.76 7.81L3.26 8.36C3.08 8.56 2.98 8.82 3.00 9.08C3.01 9.35 3.13 9.60 3.33 9.78C3.52 9.96 3.78 10.05 4.05 10.04C4.31 10.02 4.56 9.91 4.74 9.71L5.24 9.16C6.52 7.76 9.40 7.66 10.76 9.16L11.26 9.71C11.44 9.91 11.69 10.02 11.95 10.04C12.22 10.05 12.48 9.96 12.68 9.78C12.87 9.60 12.99 9.35 13.00 9.08C13.01 8.82 12.92 8.56 12.74 8.36L12.24 7.82C11.12 6.58 9.54 5.99 7.97 6.00ZM8.00 10.00C7.49 10.00 6.98 10.20 6.59 10.59C5.80 11.37 5.80 12.63 6.59 13.41C7.37 14.20 8.63 14.20 9.41 13.41C10.20 12.63 10.20 11.37 9.41 10.59C9.02 10.20 8.51 10.00 8.00 10.00ZM8.00 10.00'
stroke='none'
fill='rgb(0,0,0)'
gpa:fill='foreground'/>
</svg>
